modules/hawcons-filled/icons/icon-76-document-unlocked.svg

<?xml version="1.0" encoding="UTF-8" standalone="no"?>
<svg width="32px" height="32px" viewBox="0 0 32 32" version="1.1" xmlns="http://www.w3.org/2000/svg" xmlns:xlink="http://www.w3.org/1999/xlink" xmlns:sketch="http://www.bohemiancoding.com/sketch/ns">
    <!-- Generator: Sketch 3.0.3 (7891) - http://www.bohemiancoding.com/sketch -->
    <title>icon 76 document unlocked</title>
    <desc>Created with Sketch.</desc>
    <defs></defs>
    <g id="Page-1" stroke="none" stroke-width="1" fill="none" fill-rule="evenodd" sketch:type="MSPage">
        <g id="icon-76-document-unlocked" sketch:type="MSArtboardGroup" fill="#929292">
            <path d="M24,10 L19.0059191,10 C17.8980806,10 17,9.11329365 17,8.00189865 L17,2 L7.0085302,2 C5.8992496,2 5,2.89833832 5,4.00732994 L5,26.9926701 C5,28.1012878 5.89092539,29 6.99742191,29 L17,29 L17,24.9981014 C17,24.25285 17.4022427,23.6086284 18,23.2650424 L18,21.492066 C18,19.0169864 20.0147186,17 22.5,17 C23.0256277,17 23.5305751,17.090328 24,17.2563122 L24,10 L24,10 Z M18,7.99707067 C18,8.55097324 18.4509752,9 18.990778,9 L24,9 L18,2 L18,7.99707067 L18,7.99707067 Z M25.5012277,24 L26.0024554,24 C26.5536886,24 27,24.4490268 27,25.0029293 L27,29.9970707 C27,30.5621186 26.553384,31 26.0024554,31 L18.9975446,31 C18.4463114,31 18,30.5509732 18,29.9970707 L18,25.0029293 C18,24.4378814 18.446616,24 19,24 L19,21.4975147 C19,19.5625 20.5670034,18 22.5,18 C24.4290634,18 26,19.5658907 26,21.4975147 L26,22 L25.5,22 L25,22 L25,21.5093004 C25,20.123452 23.8903379,19 22.5,19 C21.1192881,19 20,20.1123657 20,21.5093004 L20,24 L25,24 L25.5012277,24 L25.5012277,24 Z" id="document-unlocked" sketch:type="MSShapeGroup"></path>
        </g>
    </g>
</svg>

<svg width="32" height="32" xmlns="http://www.w3.org/2000/svg"><path d="M24 10h-4.994A1.997 1.997 0 0 1 17 8.002V2H7.009C5.899 2 5 2.898 5 4.007v22.986A2 2 0 0 0 6.997 29H17v-4.002c0-.745.402-1.39 1-1.733v-1.773a4.5 4.5 0 0 1 6-4.236V10zm-6-2.003c0 .554.451 1.003.99 1.003H24l-6-7v5.997zM25.501 24h.501A1 1 0 0 1 27 25.003v4.994A.993.993 0 0 1 26.002 31h-7.004A1 1 0 0 1 18 29.997v-4.994A.994.994 0 0 1 19 24v-2.502A3.497 3.497 0 0 1 22.5 18c1.93 0 3.5 1.566 3.5 3.498V22h-1v-.49c0-1.387-1.11-2.51-2.5-2.51-1.38 0-2.5 1.112-2.5 2.51V24h5.501z" fill="#929292" fill-rule="evenodd"/></svg>
